X:98204
T:Our Highland Queen
C:J. Scott Skinner
R:Strathspey (8x32)
B:RSCDS D82-4
Z:Anselm Lingnau <anselm@strathspey.org>
M:C
L:1/8
K:D
(3A,/B,/C/ |\
"D"D>AF>A D>AF>A | (3fed "A7"(3cdB "D"A3 F/D/ |\
"A7"C>A G>A "D"F>A "Bm"D>A | "E7"(3FED (3CDB, "A7"A,3 (3A,/B,/C/ ||
"D"D>A F>A D>A F>A | (3fed "A7"(3cdB "D"A3 G/F/ |\
"Em"(3GBe "A7"E>G "D"(3FAd "G"A>G | "D"(3F>ED "A7"(3CFE "D"D3 |]
(3A/B/c/ |\
"D"d>f (3Afd (3afd (3AFD | (3A,DF (3AFd A3 "B7"(3B/^c/^d/ |\
"Em"e>g (3Beg (3bge (3BGE | "A"(3CEG (3CEA "D"F3 (3A/B/c/ ||
"D"d>f (3Afd (3afd (3AFD | (3A,DF (3AFd A3 G/F/ |\
"Em"(3GBe "A7"E>G "D"(3FAd "G"A>G | "D"(3F>ED "A7"(3CFE "D"D3 |]
